X:1
T:Title
%%score 1 ( 2 3 )
L:1/8
Q:1/4=85
M:4/4
K:Eb
V:1 treble nm="Grand Piano, Soprano"
V:2 bass nm="Choir Pad, When the Fire Came Down"
V:3 bass 
V:1
 E>[EF] [EG]<[EG] [GB]>[GB] [Ac][GB]- | [GB]E/E/ [EG]<[EG] [DF]>[DF] E2 | %2
w: By~Arthur~Willis~Spooner,~1906 * * * * * * *||
 [EG][GB] [Ac]>[Ac] [Ac][Ae][GB][EG] | [EF]E [DF]6 | [AB]>[AB] [GB]>[GB] [GB]>[Ge] [Ge]<[GB] | %5
w: |||
 [GB]>[GB] [Ac]>[Ac] [Ac]>[Ae] [Ge]<[GB] | E[EF] [EG]4 [DF]2- | [DF]2 [B,E]6 | E[DF] [EG]4 [DF]2- | %9
w: ||||
 [DF]2 [CE]6 | [EG][FA] [GB]4 [FA]2- | [FA]2 [EG]6 | [GB]>[GB] [Ge]>[Ge] [Ge]>[Ge] [Ge]<[GB] | %13
w: ||||
 [GB][GB] [Ac]>[Ac] [Ac]>[Ae] [Ae]<[GB] | E[EF] [EG]4 [DF]2- | [DF]2 [B,E]6- | [B,E]2 z2 z4 |] %17
w: ||||
V:2
 [E,G,]>[E,A,] [E,B,]<[E,B,] [E,E]>[E,E] [E,E][E,E]- | %1
 [E,E][E,G,]/[E,G,]/ [B,,B,]<[B,,B,] [B,,A,]>[B,,A,] [E,G,]2 | %2
 [E,B,][E,E] [A,E]>[A,E] [A,E][A,C][E,E][E,B,] | [E,A,][E,G,] [B,,B,]6 | %4
 [B,,B,]>[B,,B,] [E,B,]>[E,B,] [E,B,]>[E,B,] [E,B,]<[E,E] | %5
 [E,E]>[E,E] [A,E]>[A,E] [A,E]>[A,C] [E,B,]<[E,B,] | [E,G,][E,A,] [B,,B,]4 [B,,A,]2- | %7
 [B,,A,]2 [E,G,]6 | [E,G,][B,,B,] [E,B,]2 [E,B,][E,B,] [B,,B,]2 | B,A, [E,G,]6 | %10
 [E,B,][E,B,] [E,E]2 [E,E][E,E] [D,B,]2 | [D,B,]2 [E,B,]6 | %12
 [E,E]>[E,E] [E,B,]>[E,B,] [E,B,]>[E,B,] [E,B,]<[E,E] | %13
 [E,E][E,E] [A,E]>[A,E] [A,E]>[A,C] [E,B,]<[E,E] | [E,G,][E,A,] [E,B,]2 [E,B,][B,,B,] [B,,B,]2 | %15
 B,A, [E,G,]6- | [E,G,]2 z2 z4 |] %17
V:3
 x8 | x8 | x8 | x8 | x8 | x8 | x8 | x8 | x8 | B,,2 z2 z4 | x8 | x8 | x8 | x8 | x8 | B,,2 z2 z4 | %16
 x8 |] %17

